X:1
T:Patriot Game, The
T:Merry Month of May, The
R:air
S:Clancy Bros. and Tommy Makem, In Person at Carnegie Hall
Z:Jerome Colburn <jscolbur@prairienet.ORG>, from memory
M:9/4
L:1/4
K:D
D | FAd B3 A2 F | EAA D3 z2 d | ede f3 d2 B | AFA d3 z2 d |
| ede f3 d2 B | AFA d3 z2 D | FAd B3 A2 F | EAA D3 z2 |]
